X: 1768
T: Sevgi Dolu Şu Gönlüm
C: Bilge Özgen
O: Turkey
F: http://compmusic.upf.edu/node/140
N: ussak--sarki--duyek--sevgi_dolu--bilge_ozgen
N: makam= ussak
N: form= sarki
N: usul= duyek = 8/4
M: 8/4
L: 1/16
K: C _2/4B   
Q: 1/4=180
%%MIDI tuningsystem comma53
e2 f4 e2 g4 {f}e2 d2  | c3B c2 e2 d4 z4  | \
w:  ARANAĞME  |   | 
d2 e4 d2 f3e d2 c2  | B3A B2 d2 c4 z4  | 
w:   |   | 
c2 d4 c2 e3d c2 B2  | B2 c4 B2 d3c B2 A2  | \
w:   |   | 
c3B A2 B2 A2 G2 (3^3/4F2E2D2  | 
w:   | 
c2 B2 A2 G2 A2 B2 c2 d2  | e2 f4 e2 g4 {f}e2 d2  | \
w:   |  ARANAĞME  | 
c3B c2 e2 d4 z4  | d2 e4 d2 f3e d2 c2  | 
w:   |   | 
B3A B2 d2 c4 z4  | c2 d4 c2 e3d c2 B2  | \
w:   |   | 
B2 c4 B2 d3c B2 A2  | c3B A2 B2 A2 G2 (3^3/4F2E2D2  | 
w:   |   | 
c2 B2 A2 G2 A4 z4  | A4 B2 c2 d4 z4  | \
w:   |  Sev gi  do lu   | 
c2 d6 (3d2c2B2 c4  | ^3/4F4 G4 A2 B2 z4  | 
w:  şu  gön lüm    |  Bir  kuş  gi bi   | 
c2 d6 A4 z4  | A4 B2 c2 d4 z4  | c2 d6 (3d2c2B2 c4  | \
w:  ka nat lı    |  Sev gi  do lu   |  şu  gön lüm    | 
e4 g4 e2 d2 z4  | c2 e6 d4 z4  | 
w:  Bir  kuş  gi bi   |  ka nat lı    | 
e2 f4 e2 g4 {f}e2 d2  | c3B c2 e2 d4 z4  | \
w:  SAZ  |   | 
e4 g4 f2 e4 d2  | c2 d6 f3e d4  | 
w:  Dün yam  se nin le   |  gü zel   SAZ  | 
e2 f6 e2 d4 c2  | B4 c4 e3d c4  | B4 d4 c2 B4 A2  | \
w:  Ha yat  se nin le   |  tat lı   SAZ  |  Dün yam  se nin le   | 
B2 c6 c3B A4  | G2 A6 B2 c4 B2  | 
w:  gü zel   SAZ  |  Ha yat  se nin le   | 
B4 {A}A4 ^3/4f2 g2 a4  | z2 a4 a2 (3g2f2e2 d4  | \
w:  tat *  lı   SAZ  |  Sen  be nim   | 
z2 g4 g2 (3f2e2d2 c4  | e2 f6 a4 {e}e4  | 
w:  her  şe yim *  *  sin    |  Ca nım sın  *  can  | 
{d}d2 c4 B2 d8  | z4 A2 B2 c8  | {B}d3c B2 A2 B4 z4  | \
w:  *  dan  *  ya kın    |  U nu tur   |  *  san *  ma  sa kın    | 
d2 d6 c8  | z2 B2 A2 G2 A8  | 
w:  U nut mam   |  u nu ta mam    | 
z2 a4 a2 (3g2f2e2 d4  | z2 g4 g2 (3f2e2d2 c4  | \
w:  Sen  be nim   |  her  şe yim *  *  sin    | 
e2 f6 a4 {e}e4  | {d}d2 c4 B2 d8  | 
w:  Ca nım sın  *  can  |  *  dan  *  ya kın    | 
z4 A2 B2 c8  | {B}d3c B2 A2 B4 z4  | \
w:  U nu tur   |  *  san *  ma  sa kın    | 
d2 d6 c8  | z2 B2 A2 G2 A8  | e2 f4 e2 g4 {f}e2 d2  | 
w:  U nut mam   |  u nu ta mam    |  ARANAĞME  | 
c3B c2 e2 d4 z4  | d2 e4 d2 f3e d2 c2  | \
w:   |   | 
B3A B2 d2 c4 z4  | c2 d4 c2 e3d c2 B2  | 
w:   |   | 
B2 c4 B2 d3c B2 A2  | c3B A2 B2 A2 G2 (3^3/4F2E2D2  | \
w:   |   | 
c2 B2 A2 G2 A2 B2 c2 d2  | 
w:   | 
e2 f4 e2 g4 {f}e2 d2  | c3B c2 e2 d4 z4  | \
w:  ARANAĞME  |   | 
d2 e4 d2 f3e d2 c2  | B3A B2 d2 c4 z4  | 
w:   |   | 
c2 d4 c2 e3d c2 B2  | B2 c4 B2 d3c B2 A2  | \
w:   |   | 
c3B A2 B2 A2 G2 (3^3/4F2E2D2  | 
w:   | 
c2 B2 A2 G2 A4 z4  | A4 B2 c2 d4 z4  | \
w:   |  Sev gin *  le   | 
c2 d6 (3d2c2B2 c4  | ^3/4F4 G4 A2 B2 z4  | 
w:  ya nar  gön *  *  lüm    |  Bağ rım da ki   | 
c2 d6 A8  | A4 B2 c2 d4 z4  | c2 d6 (3d2c2B2 c4  | \
w:  a teş sin    |  Sev gin *  le   |  ya nar  gön *  *  lüm    | 
e4 g4 e2 d2 z4  | c2 e6 {d}d8  | 
w:  Bağ rım da ki   |  a teş *  sin    | 
e2 f4 e2 g4 {f}e2 d2  | c3B c2 e2 d4 z4  | \
w:  SAZ  |   | 
e4 g4 {a}f4 z4  | e4 d4 c2 d6  | d2 e4 d2 c8  | 
w:  Dün ya *  mı   |  ay dın la tan    |  Ha yat  ve ren   | 
B2 d6 c8  | B4 d4 c4 z4  | B4 A4 B2 c6  | \
w:  gü neş sin    |  Dün ya mı   |  ay dın la tan    | 
G2 A4 B2 c8  | {B}B2 A6 A4 ^3/4fg a2  | 
w:  Ha yat  ve ren   |  *  gü neş sin   SAZ  | 
z2 a4 a2 (3g2f2e2 d4  | z2 g4 g2 (3f2e2d2 c4  | \
w:  Sen  be nim   |  her  şe yim *  *  sin    | 
e2 f6 a4 {e}e4  | {d}d2 c4 B2 d8  | 
w:  Ca nım sın  *  can  |  *  dan  *  ya kın    | 
z4 A2 B2 c8  | {B}d3c B2 A2 B4 z4  | \
w:  U nu tur   |  *  san *  ma  sa kın    | 
d2 d6 c8  | z2 B2 A2 G2 A8  | z2 a4 a2 (3g2f2e2 d4  | 
w:  U nut mam   |  u nu ta mam    |  Sen  be nim   | 
z2 g4 g2 (3f2e2d2 c4  | e2 f6 a4 {e}e4  | \
w:  her  şe yim *  *  sin    |  Ca nım sın  *  can  | 
{d}d2 c4 B2 d8  | z4 A2 B2 c8  | {B}d3c B2 A2 B4 z4  | 
w:  *  dan  *  ya kın    |  U nu tur   |  *  san *  ma  sa kın    | 
d2 d6 c8  | z2 B2 A2 G2 A8  | |


